X: 235
T: No_8_Corn_Dance_Song_(d).krn
N: Derived from No_8_Corn_Dance_Song_(d).krn
%%abc-version 2.0
%%abcx-abcm2ps-target-version 5.9.1 (29 Sep 2008)
%%abc-creator hum2abc beta
%%abcx-conversion-date 2019/03/15 08:38:45
%%humdrum-veritas 4030002269
%%humdrum-veritas-data 2789260227
%%linebreak <none>
%%barnumbers 0
L: 1/8
M: 3/4
K: Db clef=bass
[K:clef=bass][M:3/4]A,4A,2 [I:setbarnb 2]||  
[M:2/4]A,2F,2 | 
F,2z2 ||  
[M:3/4]A,4A,G, ||  
[M:2/4]F,2D,2 | 
D,4 ||  
[M:3/4]F,=E,F,2F,2 ||  
[M:2/4]F,2D,2 | 
D,2z2 | 
D,4 | 
D,2F,2 | 
D,2D, z ||  
[M:5/8]F,D,F,D,A, ||  
[M:3/4]A,3E, F,3/D,/ ||  
[M:2/4]F,3G,/F,/ | 
D,3/D,/ D,D, | 
D,3z/ A,,/ ||  
[M:3/4]D,D,D,2z2 ||  
[M:2/4]A,2F,3/F,/ | 
F,=E, F,G, | 
F,/D,D,/ D,D, ||  
[M:3/4]D,7/A,,/ D,D, | 
D,3A,, D,D, ||  
[M:2/4]D,2z2 | 
F,=E,F,2 ||  
[M:3/4]F,2F,2D,2 ||  
[M:2/4]D,2z2 | 
D,4 | 
D,2F,2 | 
D,2D, z | 
A,4 ||  
[M:3/4]A,2A,2F,2 ||  
[M:2/4]F,2z2 ||  
[M:3/4]A,4A,G, ||  
[M:2/4]F,2D,2 | 
D,2z2 ||  
[M:3/4]F,=E,F,2F,2 ||  
[M:2/4]F,2D,2 | 
D,2z2 | 
D,4 | 
D,2F,2 | 
D,2D, z ||  
[M:5/8]F,D,F,D,A, ||  
[M:3/4]A,3A, F,3/D,/ ||  
[M:2/4]F,3G,/F,/ | 
D,3/D,/ D,D, ||  
[M:3/4]D,3A,, D,D, ||  
[M:2/4]D,4 | 
A,2F,3/F,/ | 
F,=E, F,G, ||  
[M:5/8]F,D,D,D,D, ||  
[M:3/4]D,2z A,, D,D, | 
D,7/A,,/ D,D, ||  
[M:2/4]D,2z2 ||  
[M:3/4]F,=E,F,2F,2 ||  
[M:2/4]F,2D,2 | 
D,2z2 | 
D,4 | 
D,2F,2 | 
D,2D, z :|]  



